Numix-GalliumOS/22/mimetypes/audio-midi.svg

<?xml version="1.0" encoding="UTF-8" standalone="no"?>
<svg
   xmlns:dc="http://purl.org/dc/elements/1.1/"
   xmlns:cc="http://creativecommons.org/ns#"
   xmlns:rdf="http://www.w3.org/1999/02/22-rdf-syntax-ns#"
   xmlns:svg="http://www.w3.org/2000/svg"
   xmlns="http://www.w3.org/2000/svg"
   xmlns:sodipodi="http://sodipodi.sourceforge.net/DTD/sodipodi-0.dtd"
   xmlns:inkscape="http://www.inkscape.org/namespaces/inkscape"
   width="22"
   height="22"
   viewBox="0 0 22 22"
   id="svg2"
   version="1.1"
   inkscape:version="0.91 r13725"
   sodipodi:docname="audio-midi.svg">
  <metadata
     id="metadata16">
    <rdf:RDF>
      <cc:Work
         rdf:about="">
        <dc:format>image/svg+xml</dc:format>
        <dc:type
           rdf:resource="http://purl.org/dc/dcmitype/StillImage" />
        <dc:title></dc:title>
      </cc:Work>
    </rdf:RDF>
  </metadata>
  <defs
     id="defs14" />
  <sodipodi:namedview
     pagecolor="#ffffff"
     bordercolor="#666666"
     borderopacity="1"
     objecttolerance="10"
     gridtolerance="10"
     guidetolerance="10"
     inkscape:pageopacity="0"
     inkscape:pageshadow="2"
     inkscape:window-width="1366"
     inkscape:window-height="713"
     id="namedview12"
     showgrid="false"
     inkscape:zoom="16"
     inkscape:cx="12.650764"
     inkscape:cy="8.683027"
     inkscape:window-x="0"
     inkscape:window-y="28"
     inkscape:window-maximized="1"
     inkscape:current-layer="svg2">
    <inkscape:grid
       type="xygrid"
       id="grid3004" />
  </sodipodi:namedview>
  <path
     style="fill:#9b4a85;fill-opacity:1"
     d="m 4,4e-7 c -0.472657,0 -1,0.527344 -1,1 L 3,21 c 0,0.445312 0.554687,1 1,1 l 14,0 c 0.445313,0 0.992367,-0.554753 1,-1 L 19,6.0000005 13,4e-7 z"
     id="path4-7"
     inkscape:connector-curvature="0"
     sodipodi:nodetypes="ssssssccs" />
  <path
     style="fill:#000000;fill-opacity:0.19599998"
     d="M 14,6.0000005 19,11 19,6.0000005 z"
     id="path6"
     inkscape:connector-curvature="0"
     sodipodi:nodetypes="cccc" />
  <path
     style="fill:#ffffff;fill-opacity:0.39200003"
     d="m 13,4e-7 6,6.0000001 -5,0 c -0.445312,0 -1,-0.554688 -1,-1.0000001 z"
     id="path8"
     inkscape:connector-curvature="0"
     sodipodi:nodetypes="ccssc" />
  <path
     style="fill:#ffffff;fill-rule:evenodd;stroke:none;stroke-width:1px;stroke-linecap:butt;stroke-linejoin:miter;stroke-opacity:1"
     d="M 11,8.6666667 11,14 l -4,0 0,4 5.333333,0 0,-8 L 15,10 15,8.6666667 Z"
     id="rect3337"
     inkscape:connector-curvature="0"
     sodipodi:nodetypes="ccccccccc" />
</svg>

<svg xmlns="http://www.w3.org/2000/svg" viewBox="0 0 22 22">
 <path d="m 4 0 c -0.473 0 -1 0.527 -1 1 l 0 20 c 0 0.445 0.555 1 1 1 l 14 0 c 0.445 0 0.992 -0.555 1 -1 l 0 -15 -6 -6 z" style="fill:#9b4a85;fill-opacity:1"/>
 <path d="m 14 6 5 5 0 -5 z" style="fill:#000;fill-opacity:0.196"/>
 <path d="m 13 0 6 6 -5 0 c -0.445 0 -1 -0.555 -1 -1 z" style="fill:#fff;fill-opacity:0.392"/>
 <path d="m 11 8.667 0 5.333 l -4 0 0 4 5.333 0 0 -8 l 2.667 0 0 -1.333" style="fill:#fff;stroke:none;fill-rule:evenodd"/>
</svg>
